src/images/svg/MenueIcon.svg

<svg width="40" height="40" viewBox="0 0 40 40" fill="none" xmlns="http://www.w3.org/2000/svg">
<rect width="40" height="40" rx="20" fill="#DEEEFF"/>
<path fill-rule="evenodd" clip-rule="evenodd" d="M8.75 13.75C8.75 13.0596 9.30964 12.5 10 12.5H30C30.6904 12.5 31.25 13.0596 31.25 13.75C31.25 14.4404 30.6904 15 30 15H10C9.30964 15 8.75 14.4404 8.75 13.75ZM8.75 20C8.75 19.3096 9.30964 18.75 10 18.75H30C30.6904 18.75 31.25 19.3096 31.25 20C31.25 20.6904 30.6904 21.25 30 21.25H10C9.30964 21.25 8.75 20.6904 8.75 20ZM10 25C9.30964 25 8.75 25.5596 8.75 26.25C8.75 26.9404 9.30964 27.5 10 27.5H30C30.6904 27.5 31.25 26.9404 31.25 26.25C31.25 25.5596 30.6904 25 30 25H10Z" fill="#1A65BA"/>
</svg>

<svg fill="none" xmlns="http://www.w3.org/2000/svg" viewBox="0 0 40 40"><rect width="40" height="40" rx="20" fill="#DEEEFF"/><path fill-rule="evenodd" clip-rule="evenodd" d="M8.75 13.75c0-.69.56-1.25 1.25-1.25h20a1.25 1.25 0 1 1 0 2.5H10c-.69 0-1.25-.56-1.25-1.25Zm0 6.25c0-.69.56-1.25 1.25-1.25h20a1.25 1.25 0 1 1 0 2.5H10c-.69 0-1.25-.56-1.25-1.25ZM10 25a1.25 1.25 0 1 0 0 2.5h20a1.25 1.25 0 1 0 0-2.5H10Z" fill="#1A65BA"/></svg>
